X: 4
T: Scully Casey's
R: slide
M: 12/8
L: 1/8
K: Ador
cAc BAG | EGA GAB |1 cBc dcd | eaa ged |2 cBc dBG | BAG A3 :|
|: cBc dcd | eaa ged | eaa aga | bag a2g |
eaa c'aa | aba ged | cBc dBG | BAG A3 :|


Tune 1790	Setting 15236

